svgs/light/h2.svg

<svg xmlns="http://www.w3.org/2000/svg" viewBox="0 0 640 512"><!--! Font Awesome Pro 6.3.0 by @fontawesome - https://fontawesome.com License - https://fontawesome.com/license (Commercial License) Copyright 2023 Fonticons, Inc. --><path d="M624 416h-198.1l152.4-136.2c50.47-43.69 56.56-120.7 13.59-171.6c-21.64-25.62-52.08-41.22-85.72-43.88c-33.77-2.5-66.36 8-91.83 30.03l-27.52 23.89c-6.688 5.781-7.359 15.73-1.594 22.42c5.797 6.688 15.89 7.406 22.58 1.625l27.45-23.75c18.98-16.38 43.31-24.06 68.39-22.31c25.05 1.969 47.7 13.56 63.77 32.59c32.28 38.25 27.86 93.91-10.25 126.9l-183.9 164.3c-4.953 4.438-6.656 11.44-4.297 17.66C371.4 443.9 377.4 448 384 448h240c8.844 0 16-7.156 16-16S632.8 416 624 416zM304 64C295.2 64 288 71.16 288 80v160H32v-160C32 71.16 24.84 64 16 64S0 71.16 0 80v352C0 440.8 7.156 448 16 448S32 440.8 32 432v-160h256v160C288 440.8 295.2 448 304 448s16-7.156 16-16v-352C320 71.16 312.8 64 304 64z"/></svg>

<svg xmlns="http://www.w3.org/2000/svg" viewBox="0 0 640 512"><!-- Font Awesome Pro 6.0.0-alpha2 by @fontawesome - https://fontawesome.com License - https://fontawesome.com/license (Commercial License) --><path d="M624 416H425.922L578.344 279.812C628.812 236.125 634.906 159.156 591.938 108.25C570.297 82.625 539.859 67.031 506.219 64.375C472.453 61.875 439.859 72.375 414.391 94.406L386.922 118.156C380.234 123.938 379.516 134.031 385.281 140.719C391.078 147.406 401.172 148.125 407.859 142.344L435.313 118.594C454.297 102.219 478.625 94.531 503.703 96.281C528.75 98.25 551.406 109.844 567.469 128.875C599.75 167.125 595.328 222.781 557.219 255.781L373.344 420.062C368.391 424.5 366.688 431.5 369.047 437.719C371.422 443.906 377.359 448 384 448H624C632.844 448 640 440.844 640 432S632.844 416 624 416ZM304 64C295.156 64 288 71.156 288 80V240H32V80C32 71.156 24.844 64 16 64S0 71.156 0 80V432C0 440.844 7.156 448 16 448S32 440.844 32 432V272H288V432C288 440.844 295.156 448 304 448S320 440.844 320 432V80C320 71.156 312.844 64 304 64Z"/></svg>
